X: 1742
T: Serenler Zeybeði
C: Hamit Çine
O: Turkey
F: http://compmusic.upf.edu/node/140
N: muhayyer--zeybek--aksak--serenler--burdur
N: makam= muhayyer
N: form= zeybek
N: usul= aksak = 9/8
M: 9/8
L: 1/16
K: C _2/4B ^3/4f  
Q: 1/4=102
%%MIDI tuningsystem comma53
g/f/g/a/g/a/f/g/ ee/g/=f/e/d d/c3/2c/d/B GdBG d/B/d | 
w:   | 
g/f/g/a/ g/a/f/g/ee/g/ =f/e/dd/c3/2 c/d/BGd BGd/B/d  | 
w:   | 
d/c3/2c/d/B GdBG d/c3/2c/d/B GdBG d/B/d | 
w:   | 
d/c3/2 c/d/BGd BGd/c3/2 c/d/BGd BGd/B/d  | 
w:   | 
d2cd e/=f/e/g/f/e/d d/c3/2c/d/B GdBG d/B/d | 
w:   | 
d2 c/{d}c/dee/g/ =f/e/dcA BGA2 A2A2  | |


